X: 09066
T: LEGER'S QUADRILLE
C: Bob McQuillen 17 Oct 92
B: Bob's Note Book 9 #66
%R: march
Z: 2018 John Chambers <jc:trillian.mit.edu>
M: C
L: 1/4
K: D
FG \
| AA2F | DFA2 | BB2A | GAB2 | cc2d | edcA | ddcB | AGFG |
| AA2F | DFA2 | BB2A | GABd | c>BAB | Agfe | ed2c | d2 |]
[| df \
| a2a>b | afde | fdBd | AAdf | aa2b | afde | fe2d | e2df |
| aa2b | a>fde | f>dBd | BAdB | A>BAF | Ad2g | f2e2 | d2 |]
%%begintext align
%% I think the last time
%% I played for Dick Reger was up at Vermong Academy with
%% April and Pete as New England Tradition, but I played for him
%% occasionallyh long before that when I was a member of Ralph's
%% band in the late 40's and early 50's. He is a fine caller and
%% great fun to work for; I've wanted a tune for you for a long
%% while, Dick - I'm so glad this one finally showed up with
%% your name on it!
%%endtext

%%sep 1 1 500

%%sep 1 1 500

